Dominus_Dark_Funeral/22/apps/wayland.svg

<svg xmlns="http://www.w3.org/2000/svg" xmlns:xlink="http://www.w3.org/1999/xlink" width="24" height="24" viewBox="0 0 6.35 6.35"><defs><linearGradient id="b" y1="13" x1="13" y2="41.5" x2="43.09" gradientUnits="userSpaceOnUse" gradientTransform="translate(74.25 -1.9) scale(.70829)" xlink:href="#a"><stop stop-color="#050000"/><stop offset="1" stop-color="#0b0000" stop-opacity="0"/></linearGradient><linearGradient gradientTransform="matrix(1.25 0 0 1.26667 -92.14 -151.08)" gradientUnits="userSpaceOnUse" x2="386.57" y2="540.75" x1="390.57" y1="535.36" id="a"><stop stop-color="#fdbc4b"/><stop stop-color="#dde341" offset="1"/></linearGradient><linearGradient xlink:href="#b" id="c" gradientUnits="userSpaceOnUse" gradientTransform="matrix(.1874 0 0 .1874 19.65 -6.85)" x1="13" y1="13" x2="43.09" y2="41.5"/></defs><path d="M21.36 2.25l.06.07h.57a4.2 4.2 0 0 1-.6-.06h-.03z" opacity=".3" fill="url(#c)" fill-rule="evenodd"/><path style="line-height:125%" d="M5.75.46c-.1-.1-.2-.18-.32-.26l-.12.06c-.08 0-.14.32-.18.95-.13.3-.28.74-.43 1.3h-.4l-.21.02v.05h.1l.08-.03.35.05v.02a2 2 0 0 1-.18.51c-.13.63-.23.95-.31.95h-.06a1.6 1.6 0 0 1-.31-.5.25.25 0 0 0-.06-.17l-.3-.67c-.07-.3-.15-.5-.25-.65-.03-.1-.09-.14-.16-.14h-.04c-.12 0-.24.08-.35.25l.02.07a3.9 3.9 0 0 1-.24.6c-.18.51-.3.77-.35.77h-.04l-.08-.07a6.26 6.26 0 0 1-.29-1.64h-.03v-.05h.01a.4.4 0 0 1 .15-.21v-.02l-.02-.03-.02.03-.03-.03-.1.03h-.04c-.02 0-.06-.1-.12-.3V1.3h.14v-.05h-.18A2.3 2.3 0 0 0 .91.38L.98.4C.93.33.91.33.91.33.74.33.62.46.55.73v.4l.16.98v.3l.02.4c-.06 0-.1.01-.1.04v.03l.1-.03h.02v.68c.05.45.15.85.29 1.2.01.25.04.37.08.37.06.25.1.37.14.37.18.25.41.43.69.53.1 0 .18-.12.25-.37.08-.53.15-.85.2-.97.04.05.13.08.24.1v-.03c0-.04-.07-.09-.22-.14.04-.2.1-.38.16-.53.01-.25.14-.6.39-1.04l.1.02c.01.2.04.37.08.5a2 2 0 0 1 .22.87c0 .1.12.45.35 1.04.06.4.13.62.23.7h.04c.12 0 .26-.16.42-.47.16-.35.3-.54.39-.58 0-.03-.03-.04-.1-.04v-.03c.05 0 .08-.02.08-.05v-.02l-.02-.02.23-.1c0-.07-.03-.11-.09-.11V4.7h.17v-.04c-.09 0-.14-.05-.17-.14h.04v-.09l-.02-.02c.12 0 .19-.03.19-.08v-.02h-.04v-.02c.04 0 .07-.05.1-.14-.12-.04-.18-.08-.18-.12l.15-.46c0-.23.05-.49.13-.76.1-.27.16-.56.2-.88.1-.37.22-.6.33-.68v-.02h-.02l-.09.07h-.03z" font-weight="700" letter-spacing="0" word-spacing="0" fill="#e6e6e6"/></svg>

<?xml version="1.0" encoding="UTF-8" standalone="no"?>
<svg
   xmlns:dc="http://purl.org/dc/elements/1.1/"
   xmlns:cc="http://creativecommons.org/ns#"
   xmlns:rdf="http://www.w3.org/1999/02/22-rdf-syntax-ns#"
   xmlns:svg="http://www.w3.org/2000/svg"
   xmlns="http://www.w3.org/2000/svg"
   xmlns:xlink="http://www.w3.org/1999/xlink"
   xmlns:sodipodi="http://sodipodi.sourceforge.net/DTD/sodipodi-0.dtd"
   xmlns:inkscape="http://www.inkscape.org/namespaces/inkscape"
   width="24"
   height="24"
   viewBox="0 0 6.35 6.35"
   version="1.1"
   id="svg19"
   sodipodi:docname="wayland.svg"
   inkscape:version="0.92.4 (5da689c313, 2019-01-14)">
  <metadata
     id="metadata23">
    <rdf:RDF>
      <cc:Work
         rdf:about="">
        <dc:format>image/svg+xml</dc:format>
        <dc:type
           rdf:resource="http://purl.org/dc/dcmitype/StillImage" />
        <dc:title></dc:title>
      </cc:Work>
    </rdf:RDF>
  </metadata>
  <sodipodi:namedview
     pagecolor="#ffffff"
     bordercolor="#666666"
     borderopacity="1"
     objecttolerance="10"
     gridtolerance="10"
     guidetolerance="10"
     inkscape:pageopacity="0"
     inkscape:pageshadow="2"
     inkscape:window-width="1138"
     inkscape:window-height="480"
     id="namedview21"
     showgrid="false"
     inkscape:zoom="9.8333333"
     inkscape:cx="1.0677966"
     inkscape:cy="12"
     inkscape:window-x="0"
     inkscape:window-y="25"
     inkscape:window-maximized="0"
     inkscape:current-layer="svg19" />
  <defs
     id="defs13">
    <linearGradient
       id="b"
       y1="13"
       x1="13"
       y2="41.5"
       x2="43.09"
       gradientUnits="userSpaceOnUse"
       gradientTransform="translate(74.25 -1.9) scale(.70829)"
       xlink:href="#a">
      <stop
         stop-color="#050000"
         id="stop2" />
      <stop
         offset="1"
         stop-color="#0b0000"
         stop-opacity="0"
         id="stop4" />
    </linearGradient>
    <linearGradient
       gradientTransform="matrix(1.25 0 0 1.26667 -92.14 -151.08)"
       gradientUnits="userSpaceOnUse"
       x2="386.57"
       y2="540.75"
       x1="390.57"
       y1="535.36"
       id="a">
      <stop
         stop-color="#fdbc4b"
         id="stop7" />
      <stop
         stop-color="#dde341"
         offset="1"
         id="stop9" />
    </linearGradient>
    <linearGradient
       xlink:href="#b"
       id="c"
       gradientUnits="userSpaceOnUse"
       gradientTransform="matrix(0.1874,0,0,0.1874,19.65,-6.85)"
       x1="13"
       y1="13"
       x2="43.09"
       y2="41.5" />
  </defs>
  <path
     d="m 21.36,2.25 0.06,0.07 h 0.57 a 4.2,4.2 0 0 1 -0.6,-0.06 h -0.03 z"
     id="path15"
     style="opacity:0.3;fill:url(#c);fill-rule:evenodd"
     inkscape:connector-curvature="0" />
  <path
     style="font-weight:700;line-height:125%;letter-spacing:0;word-spacing:0;fill:#e6e6e6"
     d="M 5.75,0.46 C 5.65,0.36 5.55,0.28 5.43,0.2 L 5.31,0.26 C 5.23,0.26 5.17,0.58 5.13,1.21 5,1.51 4.85,1.95 4.7,2.51 H 4.3 L 4.09,2.53 v 0.05 h 0.1 L 4.27,2.55 4.62,2.6 V 2.62 A 2,2 0 0 1 4.44,3.13 C 4.31,3.76 4.21,4.08 4.13,4.08 H 4.07 A 1.6,1.6 0 0 1 3.76,3.58 0.25,0.25 0 0 0 3.7,3.41 L 3.4,2.74 C 3.33,2.44 3.25,2.24 3.15,2.09 3.12,1.99 3.06,1.95 2.99,1.95 H 2.95 C 2.83,1.95 2.71,2.03 2.6,2.2 L 2.62,2.27 A 3.9,3.9 0 0 1 2.38,2.87 C 2.2,3.38 2.08,3.64 2.03,3.64 H 1.99 L 1.91,3.57 A 6.26,6.26 0 0 1 1.62,1.93 H 1.59 V 1.88 H 1.6 A 0.4,0.4 0 0 1 1.75,1.67 V 1.65 L 1.73,1.62 1.71,1.65 1.68,1.62 1.58,1.65 H 1.54 C 1.52,1.65 1.48,1.55 1.42,1.35 V 1.3 H 1.56 V 1.25 H 1.38 A 2.3,2.3 0 0 0 0.91,0.38 L 0.98,0.4 C 0.93,0.33 0.91,0.33 0.91,0.33 0.74,0.33 0.62,0.46 0.55,0.73 v 0.4 l 0.16,0.98 v 0.3 l 0.02,0.4 c -0.06,0 -0.1,0.01 -0.1,0.04 V 2.88 L 0.73,2.85 H 0.75 V 3.53 C 0.8,3.98 0.9,4.38 1.04,4.73 1.05,4.98 1.08,5.1 1.12,5.1 1.18,5.35 1.22,5.47 1.26,5.47 1.44,5.72 1.67,5.9 1.95,6 2.05,6 2.13,5.88 2.2,5.63 2.28,5.1 2.35,4.78 2.4,4.66 2.44,4.71 2.53,4.74 2.64,4.76 V 4.73 C 2.64,4.69 2.57,4.64 2.42,4.59 2.46,4.39 2.52,4.21 2.58,4.06 2.59,3.81 2.72,3.46 2.97,3.02 l 0.1,0.02 c 0.01,0.2 0.04,0.37 0.08,0.5 a 2,2 0 0 1 0.22,0.87 c 0,0.1 0.12,0.45 0.35,1.04 0.06,0.4 0.13,0.62 0.23,0.7 H 3.99 C 4.11,6.15 4.25,5.99 4.41,5.68 4.57,5.33 4.71,5.14 4.8,5.1 4.8,5.07 4.77,5.06 4.7,5.06 V 5.03 c 0.05,0 0.08,-0.02 0.08,-0.05 V 4.96 L 4.76,4.94 4.99,4.84 C 4.99,4.77 4.96,4.73 4.9,4.73 V 4.7 H 5.07 V 4.66 C 4.98,4.66 4.93,4.61 4.9,4.52 H 4.94 V 4.43 L 4.92,4.41 c 0.12,0 0.19,-0.03 0.19,-0.08 V 4.31 H 5.07 V 4.29 C 5.11,4.29 5.14,4.24 5.17,4.15 5.05,4.11 4.99,4.07 4.99,4.03 L 5.14,3.57 C 5.14,3.34 5.19,3.08 5.27,2.81 5.37,2.54 5.43,2.25 5.47,1.93 5.57,1.56 5.69,1.33 5.8,1.25 V 1.23 H 5.78 L 5.69,1.3 H 5.66 Z"
     font-weight="700"
     letter-spacing="0"
     word-spacing="0"
     id="path17"
     inkscape:connector-curvature="0" />
</svg>
